X: 38949
T: Suzie's 70th
R: jig
M: 6/8
K: Dmajor
a/g/|:"D"f2 d "Bm"d2 A|"G"B2 c "D"d2 A|"G"Bcd "A7"cdg|"A"e3 "A 7"z2 g/f/|
"A"e2 A "A7"A2 A|"G"B2 c "D"d2 A|"G"Bcd "A"cde|"D"d3 "D7"z2 a/g/|"Bm"f2 d "D"a2 A|
"G"B2 c "D"d2 A|"G"Bcd "A7"efg|"D"a3 "D7"z2 f/g/|"F#m"a2 A "D"A2 A|"Em7"Bdc "D"d2 A|
"G"Bcd "A7"edc|"D"d3 "F#m"z2 c/d/|"A"eAA "D"fAA|"A7"gAA "D"fAA|"A7"efg "D"agf|
"A"e3 "A7"z2 A|"Em"B2 B "A"c2 c|"D"d2 e "Bm"f2 A|"G"Bcd "A"edc|"D"a3 "F#m"z2 c/d/|
"A7"gAA "D"fAA|"A"eAA "D"fAA|"A7"efg "D"agf|"A"e3 "A7"z2 A|"Em"BAB "A"cBc|
"D"dcd "Em"e2 A|"G"Bcd "A"edc|"D"d2 "D7"z3 a/g/:|

